; generated by PrusaSlicer 2.5.0+win64 on 2022-12-02 at 14:44:24 UTC


;
;

;
;
; 

; external perimeters extrusion width = 0.45mm
; perimeters extrusion width = 0.45mm
; infill extrusion width = 0.45mm
; solid infill extrusion width = 0.45mm
; top infill extrusion width = 0.40mm
; support material extrusion width = 0.35mm
; first layer extrusion width = 0.42mm

; external perimeters extrusion width = 0.45mm
; perimeters extrusion width = 0.45mm
; infill extrusion width = 0.45mm
; solid infill extrusion width = 0.45mm
; top infill extrusion width = 0.40mm
; support material extrusion width = 0.35mm
; first layer extrusion width = 0.42mm

M73 P0 R130
M201 X2500 Y2500 Z400 E5000 ; sets maximum accelerations, mm/sec^2
M203 X180 Y180 Z12 E80 ; sets maximum feedrates, mm / sec
M204 P1250 R1250 T2500 ; sets acceleration (P, T) and retract acceleration (R), mm/sec^2
M205 X8.00 Y8.00 Z2.00 E10.00 ; sets the jerk limits, mm/sec
M205 S0 T0 ; sets the minimum extruding and travel feed rate, mm/sec
M107
;TYPE:Custom
M862.3 P "MINI" ; printer model check
G90 ; use absolute coordinates
M83 ; extruder relative mode
M104 S170 ; set extruder temp for bed leveling
M140 S60 ; set bed temp
M109 R170 ; wait for bed leveling temp
M190 S60 ; wait for bed temp
M204 T1250 ; set travel acceleration
G28 ; home all without mesh bed level
G29 ; mesh bed leveling 
M204 T2500 ; restore travel acceleration
M104 S215 ; set extruder temp
G92 E0
G1 Y-2 X179 F2400
G1 Z3 F720
M109 S215 ; wait for extruder temp

; intro line
G1 X170 F1000
G1 Z0.2 F720
G1 X110 E8 F900
G1 X40 E10 F700
G92 E0

M221 S95 ; set flow
G21 ; set units to millimeters
G90 ; use absolute coordinates
M83 ; use relative distances for extrusion
M900 K0.2 ; Filament gcode LA 1.5
; ; Filament gcode LA 1.0
M107
;LAYER_CHANGE
;Z:0.2
;HEIGHT:0.2
;BEFORE_LAYER_CHANGE
G92 E0.0
;0.2


G1 E-3.2 F4200
G1 Z.2 F720
;AFTER_LAYER_CHANGE
;0.2
G1 Z.4
G1 X55.658 Y65.489 F9000
G1 Z.2 F720
G1 E3.2 F2400
M204 P800
;TYPE:Skirt/Brim
;WIDTH:0.42
G1 F1200
G1 X58.052 Y63.889 E.09028
G1 X60.097 Y62.882 E.07147
G1 X62.431 Y62.076 E.07742
G1 X64.997 Y61.548 E.08216
G1 X67.477 Y61.376 E.07793
G1 X86.2 Y61.375 E.58704
G1 X88.628 Y61.54 E.07632
G1 X91.229 Y62.07 E.08322
G1 X125.256 Y73.203 E1.12253
G1 X126.143 Y73.728 E.03232
G1 X130.531 Y77.869 E.18917
G1 X131.195 Y78.814 E.0362
G1 X131.578 Y79.733 E.03125
G1 X131.786 Y81.141 E.04462
G1 X131.787 Y90.539 E.29466
G1 X131.7 Y91.45 E.0287
G1 X131.367 Y92.517 E.03503
G1 X130.774 Y93.514 E.03638
G1 X125.095 Y100.89 E.29188
G1 X124.289 Y101.776 E.03755
G1 X104.47 Y117.969 E.80246
G1 X102.984 Y118.504 E.0495
G1 X86.09 Y118.627 E.52972
G1 X67.48 Y118.625 E.5835
G1 X65.052 Y118.46 E.07631
G1 X62.744 Y118.006 E.07373
G1 X60.018 Y117.081 E.09028
G1 X57.967 Y116.068 E.07171
G1 X55.724 Y114.567 E.08464
G1 X53.896 Y112.959 E.07631
G1 X52.329 Y111.182 E.07431
G1 X50.729 Y108.788 E.09028
G1 X49.722 Y106.743 E.07147
G1 X48.851 Y104.176 E.08499
G1 X48.388 Y101.843 E.07459
G1 X48.216 Y99.363 E.07793
G1 X48.215 Y80.64 E.58704
G1 X48.38 Y78.212 E.07631
G1 X48.834 Y75.904 E.07374
G1 X49.759 Y73.178 E.09028
M73 P0 R129
G1 X50.772 Y71.128 E.07171
G1 X52.273 Y68.884 E.08464
G1 X53.881 Y67.056 E.07631
G1 X55.613 Y65.529 E.07242
M204 P1000
; printing object proto_accelerometer_plate.STL id:0 copy 0
G1 E-2.24 F4200
;WIPE_START
G1 F7200
G1 X56.979 Y64.61 E-.912
;WIPE_END
G1 E-.048 F4200
G1 Z.4 F720
G1 X124.517 Y78.18 F9000
G1 Z.2 F720
G1 E3.2 F2400
M204 P800
;TYPE:Support material
G1 F1200
G1 X113.983 Y78.18 E.33026
G1 X113.983 Y75.462 E.08523
G1 X124.517 Y75.462 E.33026
G1 X124.517 Y78.124 E.08345
M204 P1000
G1 X123.859 Y78.011 F9000
M204 P800
G1 F1200
G1 X123.859 Y75.802 E.06927
G1 X123.44 Y75.802 E.01314
G1 X123.44 Y77.841 E.06395
G1 X123.021 Y77.841 E.01314
G1 X123.021 Y75.802 E.06395
G1 X122.602 Y75.802 E.01314
G1 X122.602 Y77.841 E.06395
G1 X122.183 Y77.841 E.01314
G1 X122.183 Y75.802 E.06395
G1 X121.764 Y75.802 E.01314
G1 X121.764 Y77.841 E.06395
G1 X121.345 Y77.841 E.01314
G1 X121.345 Y75.802 E.06395
G1 X120.926 Y75.802 E.01314
G1 X120.926 Y77.841 E.06395
G1 X120.507 Y77.841 E.01314
G1 X120.507 Y75.802 E.06395
G1 X120.088 Y75.802 E.01314
G1 X120.088 Y77.841 E.06395
G1 X119.669 Y77.841 E.01314
G1 X119.669 Y75.802 E.06395
G1 X119.25 Y75.802 E.01314
G1 X119.25 Y77.841 E.06395
G1 X118.831 Y77.841 E.01314
G1 X118.831 Y75.802 E.06395
G1 X118.412 Y75.802 E.01314
G1 X118.412 Y77.841 E.06395
G1 X117.993 Y77.841 E.01314
G1 X117.993 Y75.802 E.06395
G1 X117.574 Y75.802 E.01314
G1 X117.574 Y77.841 E.06395
G1 X117.155 Y77.841 E.01314
G1 X117.155 Y75.802 E.06395
G1 X116.736 Y75.802 E.01314
G1 X116.736 Y77.841 E.06395
G1 X116.317 Y77.841 E.01314
G1 X116.317 Y75.802 E.06395
G1 X115.898 Y75.802 E.01314
G1 X115.898 Y77.841 E.06395
G1 X115.479 Y77.841 E.01314
G1 X115.479 Y75.802 E.06395
G1 X115.06 Y75.802 E.01314
G1 X115.06 Y77.841 E.06395
G1 X114.641 Y77.841 E.01314
G1 X114.641 Y75.632 E.06927
M204 P1000
G1 E-2.24 F4200
;WIPE_START
G1 F7200
G1 X114.641 Y77.278 E-.912
;WIPE_END
G1 E-.048 F4200
G1 Z.4 F720
G1 X128.51 Y90.969 F9000
G1 Z.2 F720
G1 E3.2 F2400
M204 P800
;TYPE:Perimeter
;WIDTH:0.419999
G1 F1200
G1 X128.413 Y91.205 E.00799
G1 X128.212 Y91.574 E.01318
G1 X122.546 Y98.93 E.29114
G1 X122.086 Y99.428 E.02124
G1 X121.609 Y99.816 E.01927
G1 X121.145 Y100.093 E.01695
G1 X120.596 Y100.322 E.01865
G1 X120.055 Y100.468 E.01757
G1 X119.52 Y100.54 E.01692
G1 X118.98 Y100.54 E.01693
G1 X118.383 Y100.454 E.01891
G1 X117.764 Y100.275 E.02023
G1 X117.272 Y100.049 E.01695
G1 X116.696 Y99.669 E.02165
G1 X116.279 Y99.3 E.01745
G1 X115.939 Y98.913 E.01616
G1 X110.388 Y91.703 E.28529
G1 X110.06 Y91.175 E.01951
G1 X109.993 Y90.928 E.008
G1 X109.927 Y90.513 E.01318
G1 X109.927 Y81.198 E.29207
G1 X110.003 Y80.672 E.01667
G1 X110.203 Y80.233 E.01513
G1 X110.519 Y79.868 E.01514
G1 X110.925 Y79.607 E.01514
G1 X111.223 Y79.52 E.00972
G1 X111.658 Y79.447 E.01383
G1 X126.85 Y79.45 E.47632
G1 X127.347 Y79.522 E.01576
G1 X127.787 Y79.723 E.01516
G1 X128.152 Y80.039 E.01514
G1 X128.413 Y80.445 E.01514
G1 X128.555 Y80.928 E.01578
G1 X128.573 Y81.241 E.00981
G1 X128.573 Y90.35 E.28562
G1 X128.516 Y90.91 E.01763
M204 P1000
G1 X128.878 Y91.068 F9000
M204 P800
;TYPE:External perimeter
G1 F1200
G1 X128.761 Y91.349 E.00956
G1 X128.518 Y91.794 E.01589
G1 X122.832 Y99.176 E.29216
G1 X122.344 Y99.703 E.02251
G1 X121.884 Y100.081 E.01867
G1 X121.421 Y100.373 E.01716
G1 X120.919 Y100.611 E.0174
G1 X120.391 Y100.78 E.0174
G1 X119.82 Y100.887 E.01822
G1 X119.246 Y100.923 E.01803
G1 X118.643 Y100.883 E.01893
G1 X118.109 Y100.78 E.01706
G1 X117.581 Y100.611 E.01739
G1 X117.079 Y100.373 E.01741
G1 X116.469 Y99.97 E.02292
G1 X116.021 Y99.575 E.01872
G1 X115.646 Y99.151 E.01775
G1 X109.986 Y91.799 E.29092
G1 X109.708 Y91.321 E.01734
G1 X109.629 Y91.026 E.00956
G1 X109.55 Y90.526 E.01589
G1 X109.55 Y81.171 E.2933
G1 X109.637 Y80.565 E.01921
G1 X109.883 Y80.027 E.01854
G1 X110.27 Y79.58 E.01854
G1 X110.767 Y79.261 E.01854
G1 X111.341 Y79.092 E.01875
G1 X111.645 Y79.07 E.00955
G1 X126.877 Y79.072 E.47761
G1 X127.455 Y79.157 E.01831
G1 X127.993 Y79.403 E.01854
G1 X128.44 Y79.79 E.01854
G1 X128.759 Y80.287 E.01854
G1 X128.928 Y80.861 E.01875
G1 X128.95 Y81.241 E.01192
G1 X128.95 Y90.519 E.29094
G1 X128.886 Y91.008 E.01546
M204 P1000
G1 X128.583 Y91.146 F9000
G1 E-2.24 F4200
;WIPE_START
G1 F7200
G1 X128.761 Y91.349 E-.20125
G1 X128.518 Y91.794 E-.28079
G1 X128.044 Y92.409 E-.42995
;WIPE_END
G1 E-.048 F4200
G1 Z.4 F720
G1 X121.577 Y95.681 F9000
G1 Z.2 F720
G1 E3.2 F2400
M204 P800
;TYPE:Perimeter
G1 F1200
G1 X121.672 Y96.176 E.01582
G1 X121.645 Y96.808 E.01983
G1 X121.492 Y97.343 E.01744
G1 X121.233 Y97.786 E.01609
G1 X120.846 Y98.224 E.01832
G1 X120.346 Y98.546 E.01865
G1 X120.087 Y98.675 E.00908
G1 X119.614 Y98.798 E.01533
G1 X119.148 Y98.821 E.01463
G1 X118.594 Y98.731 E.01761
G1 X118.386 Y98.668 E.00681
G1 X117.84 Y98.363 E.0196
G1 X117.645 Y98.216 E.00764
G1 X117.228 Y97.741 E.01983
G1 X116.97 Y97.249 E.01742
G1 X116.859 Y96.856 E.0128
G1 X116.815 Y96.44 E.01311
G1 X116.853 Y95.986 E.01428
G1 X117.038 Y95.382 E.01983
G1 X117.451 Y94.755 E.02352
G1 X117.841 Y94.404 E.01645
G1 X118.291 Y94.151 E.01619
G1 X118.731 Y94.015 E.01446
G1 X119.366 Y93.962 E.01996
G1 X120.092 Y94.11 E.02325
G1 X120.563 Y94.339 E.01641
G1 X120.974 Y94.669 E.01653
G1 X121.24 Y94.985 E.01295
G1 X121.449 Y95.341 E.01295
G1 X121.555 Y95.625 E.00949
M204 P1000
G1 X121.236 Y95.858 F9000
M204 P800
;TYPE:External perimeter
G1 F1200
G1 X121.295 Y96.16 E.00965
G1 X121.268 Y96.792 E.01983
G1 X121.155 Y97.173 E.01246
G1 X120.951 Y97.536 E.01307
G1 X120.564 Y97.974 E.01832
G1 X120.027 Y98.294 E.01959
G1 X119.582 Y98.423 E.01452
G1 X119.181 Y98.445 E.01261
G1 X118.69 Y98.366 E.0156
G1 X118.543 Y98.325 E.00476
G1 X118.025 Y98.034 E.01864
G1 X117.554 Y97.54 E.02141
G1 X117.331 Y97.139 E.01438
G1 X117.233 Y96.808 E.01081
G1 X117.191 Y96.457 E.01109
G1 X117.213 Y96.097 E.01131
G1 X117.398 Y95.492 E.01983
G1 X117.757 Y94.975 E.01973
G1 X118.113 Y94.672 E.01467
G1 X118.416 Y94.507 E.01082
G1 X118.763 Y94.391 E.01146
G1 X119.397 Y94.337 E.01996
G1 X120.002 Y94.476 E.01946
G1 X120.416 Y94.693 E.01466
G1 X120.69 Y94.917 E.0111
G1 X120.918 Y95.182 E.01095
G1 X121.099 Y95.481 E.01095
G1 X121.223 Y95.8 E.01071
M204 P1000
G1 X121.534 Y95.934 F9000
G1 E-2.24 F4200
;WIPE_START
G1 F7200
G1 X121.295 Y96.16 E-.20379
G1 X121.268 Y96.792 E-.35052
G1 X121.155 Y97.173 E-.22015
G1 X121.034 Y97.389 E-.13754
;WIPE_END
G1 E-.048 F4200
G1 Z.4 F720
G1 X128.354 Y80.647 F9000
G1 Z.2 F720
G1 E3.2 F2400
M204 P800
;TYPE:Solid infill
;WIDTH:0.425857
G1 F1200
G1 X127.92 Y80.212 E.01955
G1 X127.633 Y79.963 E.0121
G1 X127.266 Y79.796 E.01282
G1 X126.91 Y79.744 E.01147
G1 X128.285 Y81.119 E.06191
G1 X128.29 Y81.665 E.0174
G1 X126.357 Y79.732 E.08705
G1 X125.815 Y79.732 E.01725
G1 X128.29 Y82.207 E.11144
G1 X128.29 Y82.748 E.01724
G1 X125.273 Y79.732 E.13583
G1 X124.732 Y79.732 E.01725
G1 X128.29 Y83.29 E.16022
G1 X128.29 Y83.832 E.01724
G1 X124.19 Y79.732 E.18461
G1 X123.648 Y79.732 E.01725
G1 X128.29 Y84.373 E.209
G1 X128.29 Y84.915 E.01724
G1 X123.107 Y79.732 E.23339
G1 X122.565 Y79.732 E.01725
G1 X128.29 Y85.456 E.25778
G1 X128.29 Y85.998 E.01724
G1 X122.024 Y79.732 E.28217
G1 X121.482 Y79.732 E.01725
G1 X128.29 Y86.539 E.30656
G1 X128.29 Y87.081 E.01724
G1 X120.94 Y79.732 E.33095
G1 X120.399 Y79.731 E.01725
G1 X128.29 Y87.622 E.35534
G1 X128.29 Y88.164 E.01724
G1 X119.857 Y79.731 E.37973
G1 X119.315 Y79.731 E.01725
G1 X128.29 Y88.706 E.40412
G1 X128.29 Y89.247 E.01724
G1 X118.774 Y79.731 E.42851
G1 X118.232 Y79.731 E.01725
G1 X128.29 Y89.789 E.4529
G1 X128.29 Y90.33 E.01724
G1 X117.691 Y79.731 E.47729
G1 X117.149 Y79.731 E.01725
G1 X128.244 Y90.826 E.49961
G1 X128.235 Y90.895 E.00223
G1 X128.099 Y91.223 E.01128
G1 X116.607 Y79.731 E.51747
G1 X116.066 Y79.731 E.01725
G1 X127.878 Y91.543 E.53192
G1 X127.643 Y91.849 E.0123
G1 X115.524 Y79.731 E.5457
G1 X114.982 Y79.731 E.01725
G1 X127.407 Y92.155 E.55948
G1 X127.171 Y92.461 E.0123
G1 X114.441 Y79.731 E.57327
G1 X113.899 Y79.731 E.01725
G1 X126.936 Y92.767 E.58705
G1 X126.7 Y93.073 E.0123
G1 X113.358 Y79.73 E.60083
G1 X112.816 Y79.73 E.01725
G1 X126.465 Y93.379 E.61461
G1 X126.229 Y93.685 E.0123
G1 X112.274 Y79.73 E.62839
G1 X111.733 Y79.73 E.01725
G1 X125.994 Y93.991 E.64217
G1 X125.758 Y94.297 E.0123
G1 X111.263 Y79.803 E.65269
G1 X111.044 Y79.867 E.00728
G1 X110.887 Y79.968 E.00594
G1 X125.522 Y94.603 E.65903
G1 X125.287 Y94.909 E.0123
G1 X110.593 Y80.215 E.66168
G1 X110.443 Y80.387 E.00726
G1 X110.375 Y80.538 E.00528
G1 X125.051 Y95.215 E.6609
G1 X124.816 Y95.521 E.0123
G1 X110.248 Y80.953 E.65598
G1 X110.21 Y81.218 E.00852
G1 X110.21 Y81.457 E.00761
G1 X124.58 Y95.827 E.64708
G1 X124.344 Y96.133 E.0123
G1 X110.21 Y81.999 E.63647
G1 X110.21 Y82.54 E.01724
G1 X124.109 Y96.439 E.62586
G1 X123.873 Y96.745 E.0123
G1 X110.21 Y83.082 E.61525
G1 X110.21 Y83.623 E.01724
G1 X123.638 Y97.051 E.60465
G1 X123.402 Y97.357 E.0123
G1 X121.913 Y95.868 E.06704
G1 X121.954 Y96.182 E.01008
G1 X121.944 Y96.44 E.00821
G1 X123.167 Y97.663 E.05507
G1 X122.931 Y97.969 E.0123
G1 X121.907 Y96.945 E.04612
G1 X121.782 Y97.361 E.01384
G1 X122.695 Y98.275 E.04115
G1 X122.46 Y98.581 E.0123
G1 X121.605 Y97.726 E.03847
G1 X121.517 Y97.89 E.00591
G1 X121.381 Y98.044 E.00654
G1 X122.217 Y98.879 E.03762
G1 X121.957 Y99.161 E.0122
G1 X121.128 Y98.332 E.03732
G1 X121.053 Y98.417 E.0036
G1 X120.841 Y98.587 E.00865
G1 X121.67 Y99.415 E.03731
G1 X121.356 Y99.643 E.01235
G1 X120.494 Y98.782 E.0388
G1 X120.25 Y98.919 E.00893
G1 X120.126 Y98.955 E.0041
G1 X121.013 Y99.842 E.03995
G1 X120.676 Y99.996 E.0118
G1 X120.639 Y100.009 E.00126
G1 X119.699 Y99.069 E.04233
G1 X119.195 Y99.106 E.01609
G1 X120.367 Y100.279 E.0528
M204 P1000
G1 E-2.24 F4200
;WIPE_START
G1 F7200
G1 X119.203 Y99.115 E-.912
;WIPE_END
G1 E-.048 F4200
G1 Z.4 F720
G1 X120.026 Y93.981 F9000
G1 Z.2 F720
G1 E3.2 F2400
M204 P800
G1 F1200
G1 X110.21 Y84.165 E.44201
G1 X110.21 Y84.706 E.01724
G1 X119.196 Y93.693 E.40465
G1 X118.699 Y93.737 E.01591
G1 X110.21 Y85.248 E.38225
G1 X110.21 Y85.79 E.01724
G1 X118.278 Y93.858 E.36331
G1 X117.912 Y94.033 E.01293
G1 X110.21 Y86.331 E.34681
G1 X110.21 Y86.873 E.01724
G1 X117.592 Y94.254 E.33239
G1 X117.3 Y94.504 E.01223
G1 X110.21 Y87.414 E.31926
G1 X110.21 Y87.956 E.01724
M73 P1 R129
G1 X117.064 Y94.81 E.30863
G1 X116.847 Y95.135 E.01244
G1 X110.21 Y88.497 E.29888
G1 X110.21 Y89.039 E.01724
G1 X116.698 Y95.526 E.29214
G1 X116.574 Y95.945 E.01388
G1 X110.21 Y89.58 E.28658
G1 X110.21 Y90.122 E.01724
G1 X116.723 Y96.635 E.29327
M204 P1000
G1 E-2.24 F4200
;WIPE_START
G1 F7200
G1 X115.559 Y95.471 E-.912
;WIPE_END
G1 E-.048 F4200
G1 Z.4 F720
G1 X119.927 Y100.38 F9000
G1 Z.2 F720
G1 E3.2 F2400
M204 P800
G1 F1200
G1 X118.557 Y99.011 E.06166
G1 X118.348 Y98.957 E.00687
G1 X117.651 Y98.581 E.02523
G1 X117.491 Y98.464 E.00631
G1 X116.978 Y97.882 E.02468
G1 X116.75 Y97.458 E.01534
G1 X116.638 Y97.092 E.01221
G1 X110.221 Y90.675 E.28895
G1 X110.323 Y91.065 E.01284
G1 X110.535 Y91.43 E.01345
G1 X110.868 Y91.863 E.01736
G1 X119.268 Y100.263 E.37826
G1 X119.041 Y100.263 E.0072
G1 X118.688 Y100.224 E.01132
G1 X112.68 Y94.216 E.27054
G1 X114.492 Y96.57 E.09459
G1 X117.966 Y100.044 E.15642
G1 X117.445 Y99.822 E.01804
G1 X117.086 Y99.609 E.01328
G1 X116.753 Y99.358 E.01328
G1 X115.374 Y97.993 E.06177
M204 P1000
; stop printing object proto_accelerometer_plate.STL id:0 copy 0
; printing object windvane_proto_housing.STL id:1 copy 0
G1 E-2.24 F4200
;WIPE_START
G1 F7200
G1 X116.544 Y99.151 E-.912
;WIPE_END
G1 E-.048 F4200
G1 Z.4 F720
G1 X79.54 Y65.508 F9000
G1 Z.2 F720
G1 E3.2 F2400
M204 P800
;TYPE:Support material
;WIDTH:0.42
G1 F1200
G1 X80.505 Y65.604 E.03042
G1 X82.912 Y66.08 E.07693
G1 X86.074 Y66.08 E.09914
G1 X88.005 Y66.207 E.06066
G1 X89.887 Y66.581 E.06016
G1 X91.704 Y67.198 E.06016
G1 X93.424 Y68.046 E.06016
G1 X95.02 Y69.112 E.06016
G1 X96.463 Y70.377 E.06016
G1 X97.728 Y71.82 E.06016
G1 X98.794 Y73.416 E.06016
G1 X99.642 Y75.136 E.06016
G1 X100.259 Y76.953 E.06016
G1 X100.633 Y78.835 E.06016
G1 X100.76 Y80.766 E.06066
G1 X100.76 Y83.928 E.09914
G1 X101.236 Y86.335 E.07694
G1 X101.479 Y88.774 E.07687
G1 X101.479 Y91.226 E.07686
G1 X101.236 Y93.665 E.07687
G1 X100.76 Y96.072 E.07693
G1 X100.76 Y99.236 E.09919
G1 X100.656 Y100.991 E.05514
G1 X100.35 Y102.693 E.05421
G1 X100.009 Y103.835 E.03739
G1 X99.771 Y104.537 E.02323
G1 X99.151 Y105.929 E.04779
G1 X98.214 Y107.525 E.05801
G1 X98.154 Y107.699 E.00576
G1 X98.136 Y107.942 E.00764
G1 X98.17 Y108.122 E.00577
G1 X98.297 Y108.376 E.00891
G1 X99.182 Y109.263 E.03928
G1 X99.328 Y109.351 E.00534
G1 X99.543 Y109.42 E.00708
G1 X99.713 Y109.431 E.00534
G1 X99.935 Y109.393 E.00708
G1 X100.171 Y109.274 E.00826
G1 X100.271 Y109.188 E.00414
G1 X100.375 Y109.062 E.00513
G1 X101.445 Y107.284 E.06505
G1 X101.917 Y106.234 E.0361
M73 P1 R128
G1 X102.967 Y106.526 E.03416
G1 X102.967 Y116.127 E.30103
G1 X93.388 Y116.127 E.30035
G1 X93.096 Y115.078 E.03414
G1 X94.112 Y114.611 E.03505
G1 X94.385 Y114.462 E.00975
G1 X95.908 Y113.531 E.05599
G1 X96.114 Y113.331 E.009
