; generated by PrusaSlicer 2.5.0+win64 on 2022-12-08 at 22:46:09 UTC


;
;

;
;
; 

; external perimeters extrusion width = 0.45mm
; perimeters extrusion width = 0.45mm
; infill extrusion width = 0.45mm
; solid infill extrusion width = 0.45mm
; top infill extrusion width = 0.40mm
; support material extrusion width = 0.35mm
; first layer extrusion width = 0.42mm

; external perimeters extrusion width = 0.45mm
; perimeters extrusion width = 0.45mm
; infill extrusion width = 0.45mm
; solid infill extrusion width = 0.45mm
; top infill extrusion width = 0.40mm
; support material extrusion width = 0.35mm
; first layer extrusion width = 0.42mm

; external perimeters extrusion width = 0.45mm
; perimeters extrusion width = 0.45mm
; infill extrusion width = 0.45mm
; solid infill extrusion width = 0.45mm
; top infill extrusion width = 0.40mm
; support material extrusion width = 0.35mm
; first layer extrusion width = 0.42mm

; external perimeters extrusion width = 0.45mm
; perimeters extrusion width = 0.45mm
; infill extrusion width = 0.45mm
; solid infill extrusion width = 0.45mm
; top infill extrusion width = 0.40mm
; support material extrusion width = 0.35mm
; first layer extrusion width = 0.42mm

; external perimeters extrusion width = 0.45mm
; perimeters extrusion width = 0.45mm
; infill extrusion width = 0.45mm
; solid infill extrusion width = 0.45mm
; top infill extrusion width = 0.40mm
; support material extrusion width = 0.35mm
; first layer extrusion width = 0.42mm

; external perimeters extrusion width = 0.45mm
; perimeters extrusion width = 0.45mm
; infill extrusion width = 0.45mm
; solid infill extrusion width = 0.45mm
; top infill extrusion width = 0.40mm
; support material extrusion width = 0.35mm
; first layer extrusion width = 0.42mm

; external perimeters extrusion width = 0.45mm
; perimeters extrusion width = 0.45mm
; infill extrusion width = 0.45mm
; solid infill extrusion width = 0.45mm
; top infill extrusion width = 0.40mm
; support material extrusion width = 0.35mm
; first layer extrusion width = 0.42mm

; external perimeters extrusion width = 0.45mm
; perimeters extrusion width = 0.45mm
; infill extrusion width = 0.45mm
; solid infill extrusion width = 0.45mm
; top infill extrusion width = 0.40mm
; support material extrusion width = 0.35mm
; first layer extrusion width = 0.42mm

; external perimeters extrusion width = 0.45mm
; perimeters extrusion width = 0.45mm
; infill extrusion width = 0.45mm
; solid infill extrusion width = 0.45mm
; top infill extrusion width = 0.40mm
; support material extrusion width = 0.35mm
; first layer extrusion width = 0.42mm

; external perimeters extrusion width = 0.45mm
; perimeters extrusion width = 0.45mm
; infill extrusion width = 0.45mm
; solid infill extrusion width = 0.45mm
; top infill extrusion width = 0.40mm
; support material extrusion width = 0.35mm
; first layer extrusion width = 0.42mm

; external perimeters extrusion width = 0.45mm
; perimeters extrusion width = 0.45mm
; infill extrusion width = 0.45mm
; solid infill extrusion width = 0.45mm
; top infill extrusion width = 0.40mm
; support material extrusion width = 0.35mm
; first layer extrusion width = 0.42mm

; external perimeters extrusion width = 0.45mm
; perimeters extrusion width = 0.45mm
; infill extrusion width = 0.45mm
; solid infill extrusion width = 0.45mm
; top infill extrusion width = 0.40mm
; support material extrusion width = 0.35mm
; first layer extrusion width = 0.42mm

M73 P0 R108
M201 X2500 Y2500 Z400 E5000 ; sets maximum accelerations, mm/sec^2
M203 X180 Y180 Z12 E80 ; sets maximum feedrates, mm / sec
M204 P1250 R1250 T2500 ; sets acceleration (P, T) and retract acceleration (R), mm/sec^2
M205 X8.00 Y8.00 Z2.00 E10.00 ; sets the jerk limits, mm/sec
M205 S0 T0 ; sets the minimum extruding and travel feed rate, mm/sec
M107
;TYPE:Custom
M862.3 P "MINI" ; printer model check
G90 ; use absolute coordinates
M83 ; extruder relative mode
M104 S170 ; set extruder temp for bed leveling
M140 S60 ; set bed temp
M109 R170 ; wait for bed leveling temp
M190 S60 ; wait for bed temp
M204 T1250 ; set travel acceleration
G28 ; home all without mesh bed level
G29 ; mesh bed leveling 
M204 T2500 ; restore travel acceleration
M104 S215 ; set extruder temp
G92 E0
G1 Y-2 X179 F2400
G1 Z3 F720
M109 S215 ; wait for extruder temp

; intro line
G1 X170 F1000
G1 Z0.2 F720
G1 X110 E8 F900
G1 X40 E10 F700
G92 E0

M221 S95 ; set flow
G21 ; set units to millimeters
G90 ; use absolute coordinates
M83 ; use relative distances for extrusion
M900 K0.2 ; Filament gcode LA 1.5
; ; Filament gcode LA 1.0
M107
;LAYER_CHANGE
;Z:0.2
;HEIGHT:0.2
;BEFORE_LAYER_CHANGE
G92 E0.0
;0.2


G1 E-3.2 F4200
G1 Z.2 F720
;AFTER_LAYER_CHANGE
;0.2
G1 Z.4
G1 X38.913 Y59.133 F9000
G1 Z.2 F720
G1 E3.2 F2400
M204 P800
;TYPE:Skirt/Brim
;WIDTH:0.42
G1 F1200
G1 X75.598 Y49.128 E1.19225
G1 X76.459 Y49.057 E.02708
G1 X103.457 Y49.057 E.8465
G1 X104.35 Y49.12 E.02806
G1 X105.121 Y49.281 E.02471
G1 X141.087 Y59.133 E1.16922
G1 X142.244 Y59.856 E.04278
G1 X142.836 Y61.425 E.0526
G1 X142.836 Y111.876 E1.58186
G1 X142.445 Y113.183 E.04278
G1 X141.408 Y114.056 E.0425
G1 X103.819 Y130.412 E1.28529
G1 X102.919 Y130.731 E.02997
G1 X102.03 Y130.901 E.02835
G1 X101.262 Y130.942 E.02413
G1 X78.605 Y130.943 E.71038
G1 X77.306 Y130.788 E.04102
G1 X76.302 Y130.466 E.03308
G1 X38.592 Y114.056 E1.28945
G1 X37.55 Y113.175 E.04278
G1 X37.164 Y111.876 E.04249
G1 X37.164 Y61.425 E1.58186
G1 X37.555 Y60.118 E.04278
G1 X38.864 Y59.168 E.05072
M204 P1000
; printing object servo_clamp.STL id:7 copy 0
G1 E-2.24 F4200
;WIPE_START
G1 F7200
G1 X40.452 Y58.734 E-.912
;WIPE_END
G1 E-.048 F4200
G1 Z.4 F720
G1 X50.074 Y102.615 F9000
G1 Z.2 F720
G1 E3.2 F2400
M204 P800
;TYPE:Support material
G1 F1200
G1 X40.676 Y102.615 E.29468
G1 X40.405 Y102.666 E.00863
G1 X40.325 Y102.698 E.00269
G1 X40.061 Y102.873 E.00996
G1 X39.975 Y102.975 E.00415
G1 X39.831 Y103.257 E.00995
G1 X39.792 Y103.46 E.00649
G1 X39.788 Y103.696 E.0074
G1 X39.541 Y103.631 E.008
G1 X39.541 Y99.025 E.14441
G1 X50.074 Y99.025 E.33026
G1 X50.074 Y102.559 E.11079
M204 P1000
G1 X49.524 Y102.446 F9000
M204 P800
G1 F1200
G1 X49.524 Y99.365 E.0966
G1 X49.105 Y99.365 E.01314
G1 X49.105 Y102.276 E.09128
G1 X48.686 Y102.276 E.01314
G1 X48.686 Y99.365 E.09128
G1 X48.267 Y99.365 E.01314
G1 X48.267 Y102.276 E.09128
G1 X47.848 Y102.276 E.01314
G1 X47.848 Y99.365 E.09128
G1 X47.429 Y99.365 E.01314
G1 X47.429 Y102.276 E.09128
G1 X47.01 Y102.276 E.01314
G1 X47.01 Y99.365 E.09128
G1 X46.591 Y99.365 E.01314
G1 X46.591 Y102.276 E.09128
G1 X46.172 Y102.276 E.01314
G1 X46.172 Y99.365 E.09128
G1 X45.753 Y99.365 E.01314
G1 X45.753 Y102.276 E.09128
G1 X45.334 Y102.276 E.01314
G1 X45.334 Y99.365 E.09128
G1 X44.915 Y99.365 E.01314
G1 X44.915 Y102.276 E.09128
G1 X44.496 Y102.276 E.01314
G1 X44.496 Y99.365 E.09128
G1 X44.077 Y99.365 E.01314
G1 X44.077 Y102.276 E.09128
G1 X43.658 Y102.276 E.01314
G1 X43.658 Y99.365 E.09128
G1 X43.239 Y99.365 E.01314
G1 X43.239 Y102.276 E.09128
G1 X42.82 Y102.276 E.01314
G1 X42.82 Y99.365 E.09128
G1 X42.401 Y99.365 E.01314
G1 X42.401 Y102.276 E.09128
G1 X41.982 Y102.276 E.01314
G1 X41.982 Y99.365 E.09128
G1 X41.563 Y99.365 E.01314
G1 X41.563 Y102.276 E.09128
G1 X41.144 Y102.276 E.01314
G1 X41.144 Y99.365 E.09128
G1 X40.725 Y99.365 E.01314
G1 X40.725 Y102.276 E.09128
G1 X40.576 Y102.284 E.00469
G1 X40.306 Y102.34 E.00864
G1 X40.306 Y99.365 E.09328
G1 X39.887 Y99.365 E.01314
G1 X39.887 Y102.811 E.10804
M204 P1000
G1 E-2.24 F4200
;WIPE_START
G1 F7200
G1 X39.887 Y101.165 E-.912
;WIPE_END
G1 E-.048 F4200
G1 Z.4 F720
G1 X39.788 Y107.05 F9000
G1 Z.2 F720
G1 E3.2 F2400
M204 P800
G1 F1200
G1 X39.858 Y107.372 E.01033
G1 X39.975 Y107.581 E.00751
G1 X40.061 Y107.682 E.00415
G1 X40.325 Y107.858 E.00996
G1 X40.627 Y107.935 E.00977
G1 X48.331 Y107.94 E.24155
G1 X48.52 Y107.955 E.00594
G1 X48.686 Y107.995 E.00534
G1 X48.843 Y108.06 E.00535
G1 X48.988 Y108.149 E.00534
G1 X49.118 Y108.26 E.00534
G1 X49.229 Y108.389 E.00534
G1 X49.318 Y108.534 E.00534
G1 X49.383 Y108.692 E.00534
G1 X49.423 Y108.858 E.00534
G1 X49.438 Y109.046 E.00594
G1 X49.438 Y111.876 E.08873
G1 X39.541 Y111.876 E.31031
G1 X39.541 Y106.924 E.15528
G1 X39.788 Y106.859 E.008
G1 X39.788 Y106.994 E.00421
M204 P1000
G1 E-2.24 F4200
;WIPE_START
G1 F7200
G1 X39.788 Y106.859 E-.07449
G1 X39.541 Y106.924 E-.14143
G1 X39.541 Y108.18 E-.69608
;WIPE_END
G1 E-.048 F4200
G1 Z.4 F720
G1 X48.686 Y111.707 F9000
G1 Z.2 F720
G1 E3.2 F2400
M204 P800
G1 F1200
G1 X48.686 Y108.362 E.10487
G1 X48.467 Y108.291 E.00722
G1 X48.318 Y108.279 E.00468
G1 X48.267 Y108.279 E.0016
G1 X48.267 Y111.537 E.10215
G1 X47.848 Y111.537 E.01314
G1 X47.848 Y108.279 E.10215
G1 X47.429 Y108.279 E.01314
G1 X47.429 Y111.537 E.10215
G1 X47.01 Y111.537 E.01314
G1 X47.01 Y108.279 E.10215
G1 X46.591 Y108.279 E.01314
G1 X46.591 Y111.537 E.10215
G1 X46.172 Y111.537 E.01314
G1 X46.172 Y108.279 E.10215
G1 X45.753 Y108.279 E.01314
G1 X45.753 Y111.537 E.10215
G1 X45.334 Y111.537 E.01314
G1 X45.334 Y108.279 E.10215
G1 X44.915 Y108.279 E.01314
G1 X44.915 Y111.537 E.10215
G1 X44.496 Y111.537 E.01314
G1 X44.496 Y108.279 E.10215
G1 X44.077 Y108.279 E.01314
G1 X44.077 Y111.537 E.10215
G1 X43.658 Y111.537 E.01314
G1 X43.658 Y108.279 E.10215
G1 X43.239 Y108.279 E.01314
G1 X43.239 Y111.537 E.10215
G1 X42.82 Y111.537 E.01314
G1 X42.82 Y108.279 E.10215
G1 X42.401 Y108.279 E.01314
G1 X42.401 Y111.537 E.10215
G1 X41.982 Y111.537 E.01314
G1 X41.982 Y108.279 E.10215
G1 X41.563 Y108.279 E.01314
G1 X41.563 Y111.537 E.10215
G1 X41.144 Y111.537 E.01314
G1 X41.144 Y108.279 E.10215
G1 X40.725 Y108.279 E.01314
G1 X40.725 Y111.537 E.10215
G1 X40.306 Y111.537 E.01314
G1 X40.306 Y108.215 E.10415
M73 P0 R107
G1 X40.171 Y108.161 E.00456
G1 X39.887 Y107.979 E.01058
G1 X39.887 Y111.707 E.11688
M204 P1000
G1 E-2.24 F4200
;WIPE_START
G1 F7200
G1 X39.887 Y110.061 E-.912
;WIPE_END
G1 E-.048 F4200
G1 Z.4 F720
G1 X87.159 Y106.924 F9000
G1 Z.2 F720
G1 E3.2 F2400
M204 P800
G1 F1200
G1 X87.159 Y111.876 E.15528
G1 X77.262 Y111.876 E.31031
G1 X77.262 Y107.94 E.12343
G1 X86.073 Y107.935 E.27624
G1 X86.375 Y107.858 E.00977
G1 X86.639 Y107.682 E.00996
G1 X86.725 Y107.581 E.00415
G1 X86.869 Y107.298 E.00995
G1 X86.908 Y107.095 E.00649
G1 X86.912 Y106.859 E.0074
G1 X87.104 Y106.91 E.00623
M204 P1000
G1 X86.813 Y111.707 F9000
M204 P800
G1 F1200
G1 X86.813 Y107.979 E.11688
G1 X86.529 Y108.161 E.01058
G1 X86.394 Y108.215 E.00456
G1 X86.394 Y111.537 E.10415
G1 X85.975 Y111.537 E.01314
G1 X85.975 Y108.279 E.10215
G1 X85.556 Y108.279 E.01314
G1 X85.556 Y111.537 E.10215
G1 X85.137 Y111.537 E.01314
G1 X85.137 Y108.279 E.10215
G1 X84.718 Y108.279 E.01314
G1 X84.718 Y111.537 E.10215
G1 X84.299 Y111.537 E.01314
G1 X84.299 Y108.279 E.10215
G1 X83.88 Y108.279 E.01314
G1 X83.88 Y111.537 E.10215
G1 X83.461 Y111.537 E.01314
G1 X83.461 Y108.279 E.10215
G1 X83.042 Y108.279 E.01314
G1 X83.042 Y111.537 E.10215
G1 X82.623 Y111.537 E.01314
G1 X82.623 Y108.279 E.10215
G1 X82.204 Y108.279 E.01314
G1 X82.204 Y111.537 E.10215
G1 X81.785 Y111.537 E.01314
G1 X81.785 Y108.279 E.10215
G1 X81.366 Y108.279 E.01314
G1 X81.366 Y111.537 E.10215
G1 X80.947 Y111.537 E.01314
G1 X80.947 Y108.279 E.10215
G1 X80.528 Y108.279 E.01314
G1 X80.528 Y111.537 E.10215
G1 X80.109 Y111.537 E.01314
G1 X80.109 Y108.279 E.10215
G1 X79.69 Y108.279 E.01314
G1 X79.69 Y111.537 E.10215
G1 X79.271 Y111.537 E.01314
G1 X79.271 Y108.279 E.10215
G1 X78.852 Y108.279 E.01314
G1 X78.852 Y111.537 E.10215
G1 X78.433 Y111.537 E.01314
G1 X78.433 Y108.279 E.10215
G1 X78.014 Y108.279 E.01314
G1 X78.014 Y111.707 E.10747
M204 P1000
G1 E-2.24 F4200
;WIPE_START
G1 F7200
G1 X78.014 Y110.061 E-.912
;WIPE_END
G1 E-.048 F4200
G1 Z.4 F720
G1 X87.159 Y103.631 F9000
G1 Z.2 F720
G1 E3.2 F2400
M204 P800
G1 F1200
G1 X86.912 Y103.696 E.008
G1 X86.908 Y103.46 E.0074
G1 X86.869 Y103.257 E.00649
G1 X86.725 Y102.975 E.00995
G1 X86.639 Y102.873 E.00415
G1 X86.375 Y102.698 E.00996
G1 X86.295 Y102.666 E.00269
G1 X86.024 Y102.615 E.00863
G1 X76.626 Y102.615 E.29468
G1 X76.626 Y99.025 E.11256
G1 X87.159 Y99.025 E.33026
G1 X87.159 Y103.575 E.14264
M204 P1000
G1 X86.813 Y102.811 F9000
M204 P800
G1 F1200
G1 X86.813 Y99.365 E.10804
G1 X86.394 Y99.365 E.01314
G1 X86.394 Y102.34 E.09328
G1 X86.124 Y102.284 E.00864
G1 X85.975 Y102.276 E.00469
G1 X85.975 Y99.365 E.09128
G1 X85.556 Y99.365 E.01314
G1 X85.556 Y102.276 E.09128
G1 X85.137 Y102.276 E.01314
G1 X85.137 Y99.365 E.09128
G1 X84.718 Y99.365 E.01314
G1 X84.718 Y102.276 E.09128
G1 X84.299 Y102.276 E.01314
G1 X84.299 Y99.365 E.09128
G1 X83.88 Y99.365 E.01314
G1 X83.88 Y102.276 E.09128
G1 X83.461 Y102.276 E.01314
G1 X83.461 Y99.365 E.09128
G1 X83.042 Y99.365 E.01314
G1 X83.042 Y102.276 E.09128
G1 X82.623 Y102.276 E.01314
G1 X82.623 Y99.365 E.09128
G1 X82.204 Y99.365 E.01314
G1 X82.204 Y102.276 E.09128
G1 X81.785 Y102.276 E.01314
G1 X81.785 Y99.365 E.09128
G1 X81.366 Y99.365 E.01314
G1 X81.366 Y102.276 E.09128
G1 X80.947 Y102.276 E.01314
G1 X80.947 Y99.365 E.09128
G1 X80.528 Y99.365 E.01314
G1 X80.528 Y102.276 E.09128
G1 X80.109 Y102.276 E.01314
G1 X80.109 Y99.365 E.09128
G1 X79.69 Y99.365 E.01314
G1 X79.69 Y102.276 E.09128
G1 X79.271 Y102.276 E.01314
G1 X79.271 Y99.365 E.09128
G1 X78.852 Y99.365 E.01314
G1 X78.852 Y102.276 E.09128
G1 X78.433 Y102.276 E.01314
G1 X78.433 Y99.365 E.09128
G1 X78.014 Y99.365 E.01314
G1 X78.014 Y102.276 E.09128
G1 X77.595 Y102.276 E.01314
G1 X77.595 Y99.365 E.09128
G1 X77.176 Y99.365 E.01314
G1 X77.176 Y102.446 E.0966
M204 P1000
G1 E-2.24 F4200
;WIPE_START
G1 F7200
G1 X77.176 Y100.8 E-.912
;WIPE_END
G1 E-.048 F4200
G1 Z.4 F720
G1 X76.627 Y106.852 F9000
G1 Z.2 F720
G1 E3.2 F2400
M204 P800
;TYPE:Perimeter
;WIDTH:0.419999
G1 F1200
G1 X76.669 Y106.525 E.01032
G1 X76.699 Y105.998 E.01656
G1 X76.704 Y103.882 E.06634
G1 X85.645 Y103.882 E.28034
G1 X85.645 Y106.673 E.0875
G1 X77.698 Y106.684 E.24918
G1 X77.146 Y106.741 E.0174
G1 X76.686 Y106.839 E.01475
M204 P1000
G1 E-2.24 F4200
;WIPE_START
G1 F7200
G1 X76.669 Y106.525 E-.17426
G1 X76.699 Y105.998 E-.2926
G1 X76.701 Y105.195 E-.44514
;WIPE_END
G1 E-.048 F4200
G1 Z.4 F720
G1 X49.996 Y103.884 F9000
G1 Z.2 F720
G1 E3.2 F2400
M204 P800
G1 F1200
G1 X50.011 Y107.391 E.10995
G1 X49.661 Y107.085 E.01457
G1 X48.993 Y106.767 E.02321
G1 X48.359 Y106.673 E.0201
G1 X41.055 Y106.673 E.22901
G1 X41.055 Y103.882 E.08749
G1 X49.936 Y103.884 E.27845
M204 P1000
G1 E-2.24 F4200
;WIPE_START
G1 F7200
G1 X49.971 Y105.529 E-.912
;WIPE_END
G1 E-.048 F4200
G1 Z.4 F720
G1 X76.688 Y107.224 F9000
G1 Z.2 F720
G1 E3.2 F2400
M204 P800
;TYPE:External perimeter
;WIDTH:0.42
G1 F1200
G1 X76.544 Y107.384 E.00674
G1 X76.539 Y107.504 E.00374
G1 X76.537 Y113.836 E.19855
;WIDTH:0.454342
G1 X76.457 Y114.343 E.01755
G1 X76.312 Y114.45 E.00618
;WIDTH:0.448068
G1 X75.841 Y114.516 E.01602
;WIDTH:0.42
G1 X50.712 Y114.507 E.78792
;WIDTH:0.460107
G1 X50.319 Y114.423 E.01393
G1 X50.241 Y114.34 E.00394
G1 X50.161 Y113.829 E.01796
;WIDTH:0.419988
G1 X50.161 Y109.025 E.1506
;WIDTH:0.424477
G1 X50.122 Y108.517 E.01619
;WIDTH:0.435686
G1 X50.053 Y108.178 E.0113
G1 X49.799 Y107.729 E.01684
;WIDTH:0.419999
G1 X49.486 Y107.419 E.01382
G1 X48.933 Y107.14 E.01943
G1 X48.359 Y107.05 E.01822
G1 X40.758 Y107.05 E.23831
G1 X40.678 Y106.973 E.00349
M73 P1 R107
G1 X40.678 Y103.582 E.10633
G1 X40.758 Y103.505 E.00349
G1 X50.304 Y103.507 E.2993
G1 X50.372 Y103.586 E.00328
G1 X50.378 Y107.064 E.10906
;WIDTH:0.422247
G1 X50.426 Y107.798 E.0232
;WIDTH:0.424477
G1 X50.503 Y108.488 E.02202
G1 X50.538 Y109.025 E.01708
;WIDTH:0.419988
G1 X50.539 Y113.829 E.1506
;WIDTH:0.460107
G1 X50.578 Y114.096 E.00938
G1 X50.867 Y114.139 E.01013
;WIDTH:0.420001
G1 X75.834 Y114.139 E.78282
;WIDTH:0.454342
G1 X76.118 Y114.097 E.00983
G1 X76.161 Y113.813 E.00982
;WIDTH:0.419999
G1 X76.161 Y107.504 E.19783
G1 X76.292 Y106.503 E.03164
G1 X76.322 Y105.997 E.01589
G1 X76.328 Y103.586 E.0756
G1 X76.404 Y103.505 E.00349
G1 X85.923 Y103.505 E.29844
G1 X86.003 Y103.529 E.00263
G1 X86.022 Y103.598 E.00223
;WIDTH:0.42
G1 X86.022 Y106.973 E.10583
G1 X85.942 Y107.05 E.00349
G1 X77.734 Y107.06 E.25735
G1 X77.225 Y107.109 E.01603
